;  Header  
N0010 ; CNC code generated by SFP from Centroid Corp. v. 5.24
; Program:      C_ROD.ICN
; Programmer:   cgv
; Date:   Wed Dec 18 14:33:40 1996
M25 G49    ; Goto Z home, cancel tool length offset 
G17 G40    ; Setup for XY plane, no cutter comp,
G20        ; inch measurements,
G80        ; cancel canned cycles,
G90        ; absolute positioning,
G98        ; canned cycle initial point return 
;  Tool change  
N0020 G49 H0 M25
G0 X-2 Y0
T1 S2500 M6
M3
G4 P3.00  ; pause for dwell
G43 D1
;  Drill bolt holes  
N0030  X0.6541 Y0.6541 Z0.1 H1
 Z0.05
G1 Z-0.5 F20
G4 P2.00  ; pause for dwell
G0 Z0.1
 X-0.4199 Y0.8242
 Z0.05
G1 Z-0.5
G4 P2.00  ; pause for dwell
G0 Z0.1
 X-0.9136 Y-0.1447
 Z0.05
G1 Z-0.5
G4 P2.00  ; pause for dwell
G0 Z0.1
 X-0.1447 Y-0.9136
 Z0.05
G1 Z-0.5
G4 P2.00  ; pause for dwell
G0 Z0.1
 X0.8242 Y-0.4199
 Z0.05
G1 Z-0.5
G4 P2.00  ; pause for dwell
G0 Z0.1
;  Circular pocket  
N0040  X0 Y-0.25
G1 G91 Z-0.1
 Y0.25 Z-0.2
G2 Y0.1517 J0.0758
 X-0.1517 Y-0.1517 J-0.1517
 X0.1517 Y0.3033 I0.3792
 X-0.3033 Y-0.3033 J-0.3033
 X0.3033 Y0.455 I0.4929
 J-0.455
G1 Y-0.705
 Y0.25 Z-0.2
G2 Y0.1517 J0.0758
 X-0.1517 Y-0.1517 J-0.1517
 X0.1517 Y0.3033 I0.3792
 X-0.3033 Y-0.3033 J-0.3033
 X0.3033 Y0.455 I0.4929
 J-0.455
G1 Y-0.705
 Y0.25 Z-0.1
G2 Y0.1517 J0.0758
 X-0.1517 Y-0.1517 J-0.1517
 X0.1517 Y0.3033 I0.3792
 X-0.3033 Y-0.3033 J-0.3033
 X0.3033 Y0.455 I0.4929
 J-0.455
G3 X-0.475 Y-0.455 J-0.4754
 I0.475
 X0.475 I0.2375
G0 G90 Z0.1
;  Rectangular pocket  
N0050  X2 Y0
G1 G91 Z-0.1
 X-0.23
 X0.46 Z-0.2
 X-0.23
 X0.1625
 X-0.325
 X-0.0675 Y0.025
G2 X0.0425 Y0.0425 I0.0425
G1 X0.375
G2 X0.0425 Y-0.0425 J-0.0425
G1 Y-0.05
G2 X-0.0425 Y-0.0425 I-0.0425
G1 X-0.375
G2 X-0.0425 Y0.0425 J0.0425
G1 Y0.05
 X0.23 Y-0.025
 X-0.23
 X0.46 Z-0.05
 X-0.23
 X0.1625
 X-0.325
 X-0.0675 Y0.025
G2 X0.0425 Y0.0425 I0.0425
G1 X0.375
G2 X0.0425 Y-0.0425 J-0.0425
G1 Y-0.05
G2 X-0.0425 Y-0.0425 I-0.0425
G1 X-0.375
G2 X-0.0425 Y0.0425 J0.0425
G1 Y0.05
 X0.23 Y-0.025
 X0.25 Y0.025
G3 X-0.0625 Y0.0625 I-0.0625
G1 X-0.375
G3 X-0.0625 Y-0.0625 J-0.0625
G1 Y-0.05
G3 X0.0625 Y-0.0625 I0.0625
G1 X0.375
G3 X0.0625 Y0.0625 J0.0625
G1 Y0.05
 X-0.25 Y-0.025
G0 G90 Z0.1
;  Repeat  
N0060  ; Begin code repetitions 
 ;  Retraction move  
 X3 Y0 Z0.2
 ;  Move to start of contour  
 Z0.1
;  Rectangular pocket  
 X3 Y0
G1 G91 Z-0.1
 X-0.23
 X0.46 Z-0.2
 X-0.23
 X0.1625
 X-0.325
 X-0.0675 Y0.025
G2 X0.0425 Y0.0425 I0.0425
G1 X0.375
G2 X0.0425 Y-0.0425 J-0.0425
G1 Y-0.05
G2 X-0.0425 Y-0.0425 I-0.0425
G1 X-0.375
G2 X-0.0425 Y0.0425 J0.0425
G1 Y0.05
 X0.23 Y-0.025
 X-0.23
 X0.46 Z-0.05
 X-0.23
 X0.1625
 X-0.325
 X-0.0675 Y0.025
G2 X0.0425 Y0.0425 I0.0425
G1 X0.375
G2 X0.0425 Y-0.0425 J-0.0425
G1 Y-0.05
G2 X-0.0425 Y-0.0425 I-0.0425
G1 X-0.375
G2 X-0.0425 Y0.0425 J0.0425
G1 Y0.05
 X0.23 Y-0.025
 X0.25 Y0.025
G3 X-0.0625 Y0.0625 I-0.0625
G1 X-0.375
G3 X-0.0625 Y-0.0625 J-0.0625
G1 Y-0.05
G3 X0.0625 Y-0.0625 I0.0625
G1 X0.375
G3 X0.0625 Y0.0625 J0.0625
G1 Y0.05
 X-0.25 Y-0.025
G0 G90 Z0.1
;  Circular pocket  
N0070  X4 Y-0.23
G1 G91 Z-0.1
 Y0.46 Z-0.2
 Y-0.23
G2 Y0.115 J0.0575
 X-0.115 Y-0.115 J-0.115
 X0.115 Y0.23 I0.2875
 J-0.23
G1 Y-0.46
 Y0.46 Z-0.2
 Y-0.23
G2 Y0.115 J0.0575
 X-0.115 Y-0.115 J-0.115
 X0.115 Y0.23 I0.2875
 J-0.23
G1 Y-0.46
 Y0.46 Z-0.1
 Y-0.23
G2 Y0.115 J0.0575
 X-0.115 Y-0.115 J-0.115
 X0.115 Y0.23 I0.2875
 J-0.23
G3 X-0.25 Y-0.23 J-0.2509
 I0.25
 X0.25 I0.125
G0 G90 Z0.1
;  Cutter comp  
N0080 G41  ; Left  
;  Rapid traverse  
N0090 M25
 X-1.5 Y-1.5
;  Linear mill  
N0100 G1 X-1.5 Y-1.5 Z-0.1
;  Linear mill  
N0110  X-1.25 Y0
;  Arc mill end  
N0120 G2 X0.7496 Y1.0003 I1.25
;  Arc mill end  
N0130 G3 X3.7746 Y0.5829 I1.8891 J2.5207
;  Arc mill end  
N0140 G2 X3.7746 Y-0.5829 I0.2255 J-0.5829
;  Arc mill end  
N0150 G3 X0.7496 Y-1.0003 I-1.1359 J-2.9381
;  Arc mill end  
N0160 G2 X-1.25 Y0 I-0.7496 J1.0003
;  Linear mill  
N0170 G1 X-1.5 Y1.5
;  Repeat to depth  
N0180  ; Begin code repetitions 
 ;  Retraction move  
G0 X-1.5 Y-1.5 Z0.1
 ;  Move to start of contour  
M25
;  Linear mill  
G1 X-1.5 Y-1.5 Z-0.2
;  Linear mill  
 X-1.25 Y0
;  Arc mill end  
G2 X0.7496 Y1.0003 I1.25
;  Arc mill end  
G3 X3.7746 Y0.5829 I1.8891 J2.5207
;  Arc mill end  
G2 X3.7746 Y-0.5829 I0.2255 J-0.5829
;  Arc mill end  
G3 X0.7496 Y-1.0003 I-1.1359 J-2.9381
;  Arc mill end  
G2 X-1.25 Y0 I-0.7496 J1.0003
;  Linear mill  
G1 X-1.5 Y1.5
 ;  Retraction move  
G0 X-1.5 Y-1.5 Z0.1
 ;  Move to start of contour  
M25
;  Linear mill  
G1 X-1.5 Y-1.5 Z-0.3
;  Linear mill  
 X-1.25 Y0
;  Arc mill end  
G2 X0.7496 Y1.0003 I1.25
;  Arc mill end  
G3 X3.7746 Y0.5829 I1.8891 J2.5207
;  Arc mill end  
G2 X3.7746 Y-0.5829 I0.2255 J-0.5829
;  Arc mill end  
G3 X0.7496 Y-1.0003 I-1.1359 J-2.9381
;  Arc mill end  
G2 X-1.25 Y0 I-0.7496 J1.0003
;  Linear mill  
G1 X-1.5 Y1.5
 ;  Retraction move  
G0 X-1.5 Y-1.5 Z0.1
 ;  Move to start of contour  
M25
;  Linear mill  
G1 X-1.5 Y-1.5 Z-0.4
;  Linear mill  
 X-1.25 Y0
;  Arc mill end  
G2 X0.7496 Y1.0003 I1.25
;  Arc mill end  
G3 X3.7746 Y0.5829 I1.8891 J2.5207
;  Arc mill end  
G2 X3.7746 Y-0.5829 I0.2255 J-0.5829
;  Arc mill end  
G3 X0.7496 Y-1.0003 I-1.1359 J-2.9381
;  Arc mill end  
G2 X-1.25 Y0 I-0.7496 J1.0003
;  Linear mill  
G1 X-1.5 Y1.5
 ;  Retraction move  
G0 X-1.5 Y-1.5 Z0.1
 ;  Move to start of contour  
M25
;  Linear mill  
G1 X-1.5 Y-1.5 Z-0.5
;  Linear mill  
 X-1.25 Y0
;  Arc mill end  
G2 X0.7496 Y1.0003 I1.25
;  Arc mill end  
G3 X3.7746 Y0.5829 I1.8891 J2.5207
;  Arc mill end  
G2 X3.7746 Y-0.5829 I0.2255 J-0.5829
;  Arc mill end  
G3 X0.7496 Y-1.0003 I-1.1359 J-2.9381
;  Arc mill end  
G2 X-1.25 Y0 I-0.7496 J1.0003
;  Linear mill  
G1 X-1.5 Y1.5
;  Cutter comp  
N0190 G40  ; Off   
;  End of program  
N0200 G49 H0 M25
G40        ; Cutter comp off
M5         ; Spindle Off
M9         ; Coolant Off
G80        ; Cancel canned cycles
 ; End of program
