; --- Header ---
N0010 ; CNC code generated by Intercon v8.11 Dev Test, Rev dg2 (DJGPP)
; Program: CAM
; Description: 
; Programmer: 
; Date: 24-Oct-2002
  M25 G49 ; Goto Z home, cancel tool length offset 
  G17 G40 ; Setup for XY plane, no cutter comp 
  G20 ; inch measurements 
  G80 ; Cancel canned cycles 
  G90 ; absolute positioning 
  G98 ; canned cycle initial point return 
; --- Tool #1 ---
  G49 H0 M25 
  G0 X0.0 Y0.0
N0020 T1 M6
  S4800 M3
  G4 P3.00 ; pause for dwell
  G43 D1
; --- Rect Poc ---
N0030 X-2.438 Y-0.2789 Z0.1 H1
  G1 G91 Z-0.1 F5.0
  Y-0.2836 Z-0.05 F5.0
  Y1.125 F2.5
  X-0.0638 Y0.0638
  X0.0638 F5.0
  X0.0638 F2.5
  Y-1.1888 F5.0
  Y-0.0638 F2.5
  X-0.0638 F5.0
  X-0.0638 F2.5
  Y1.1888 F5.0
  Y0.0638 F2.5
  X-0.0639 Y0.0639
  X0.1915 F5.0
  X0.0639 F2.5
  Y-1.3165 F5.0
  Y-0.0639 F2.5
  X-0.1915 F5.0
  X-0.0639 F2.5
  Y1.3165 F5.0
  Y0.0639 F2.5
  X-0.0638 Y0.0598
  G2 X0.004 Y0.004 I0.004
  G1 X0.3152 F5.0
  X0.0598 F2.5
  G2 X0.004 Y-0.004 J-0.004
  G1 Y-1.4402 F5.0
  Y-0.0598 F2.5
  G2 X-0.004 Y-0.004 I-0.004
  G1 X-0.3152 F5.0
  X-0.0598 F2.5
  G2 X-0.004 Y0.004 J0.004
  G1 Y1.4402 F5.0
  Y0.0598 F2.5
  X0.1915 Y-0.75 F5.0
  Y-0.2789 F2.5
  Y-0.2836 Z-0.05 F5.0
  Y1.125 F2.5
  X-0.0638 Y0.0638
  X0.0638 F5.0
  X0.0638 F2.5
  Y-1.1888 F5.0
  Y-0.0638 F2.5
  X-0.0638 F5.0
  X-0.0638 F2.5
  Y1.1888 F5.0
  Y0.0638 F2.5
  X-0.0639 Y0.0639
  X0.1915 F5.0
  X0.0639 F2.5
  Y-1.3165 F5.0
  Y-0.0639 F2.5
  X-0.1915 F5.0
  X-0.0639 F2.5
  Y1.3165 F5.0
  Y0.0639 F2.5
  X-0.0638 Y0.0598
  G2 X0.004 Y0.004 I0.004
  G1 X0.3152 F5.0
  X0.0598 F2.5
  G2 X0.004 Y-0.004 J-0.004
  G1 Y-1.4402 F5.0
  Y-0.0598 F2.5
  G2 X-0.004 Y-0.004 I-0.004
  G1 X-0.3152 F5.0
  X-0.0598 F2.5
  G2 X-0.004 Y0.004 J0.004
  G1 Y1.4402 F5.0
  Y0.0598 F2.5
  X0.1915 Y-0.75 F5.0
  Y-0.2789 F2.5
  Y-0.2836 Z-0.05 F5.0
  Y1.125 F2.5
  X-0.0638 Y0.0638
  X0.0638 F5.0
  X0.0638 F2.5
  Y-1.1888 F5.0
  Y-0.0638 F2.5
  X-0.0638 F5.0
  X-0.0638 F2.5
  Y1.1888 F5.0
  Y0.0638 F2.5
  X-0.0639 Y0.0639
  X0.1915 F5.0
  X0.0639 F2.5
  Y-1.3165 F5.0
  Y-0.0639 F2.5
  X-0.1915 F5.0
  X-0.0639 F2.5
  Y1.3165 F5.0
  Y0.0639 F2.5
  X-0.0638 Y0.0598
  G2 X0.004 Y0.004 I0.004
  G1 X0.3152 F5.0
  X0.0598 F2.5
  G2 X0.004 Y-0.004 J-0.004
  G1 Y-1.4402 F5.0
  Y-0.0598 F2.5
  G2 X-0.004 Y-0.004 I-0.004
  G1 X-0.3152 F5.0
  X-0.0598 F2.5
  G2 X-0.004 Y0.004 J0.004
  G1 Y1.4402 F5.0
  Y0.0598 F2.5
  X0.1915 Y-0.75 F5.0
  Y-0.2789 F2.5
  Y-0.2836 Z-0.05 F5.0
  Y1.125 F2.5
  X-0.0638 Y0.0638
  X0.0638 F5.0
  X0.0638 F2.5
  Y-1.1888 F5.0
  Y-0.0638 F2.5
  X-0.0638 F5.0
  X-0.0638 F2.5
  Y1.1888 F5.0
  Y0.0638 F2.5
  X-0.0639 Y0.0639
  X0.1915 F5.0
  X0.0639 F2.5
  Y-1.3165 F5.0
  Y-0.0639 F2.5
  X-0.1915 F5.0
  X-0.0639 F2.5
  Y1.3165 F5.0
  Y0.0639 F2.5
  X-0.0638 Y0.0598
  G2 X0.004 Y0.004 I0.004
  G1 X0.3152 F5.0
  X0.0598 F2.5
  G2 X0.004 Y-0.004 J-0.004
  G1 Y-1.4402 F5.0
  Y-0.0598 F2.5
  G2 X-0.004 Y-0.004 I-0.004
  G1 X-0.3152 F5.0
  X-0.0598 F2.5
  G2 X-0.004 Y0.004 J0.004
  G1 Y1.4402 F5.0
  Y0.0598 F2.5
  X0.1915 Y-0.75 F5.0
  Y-0.2789 F2.5
  Y-0.2836 Z-0.05 F5.0
  Y1.125 F2.5
  X-0.0638 Y0.0638
  X0.0638 F5.0
  X0.0638 F2.5
  Y-1.1888 F5.0
  Y-0.0638 F2.5
  X-0.0638 F5.0
  X-0.0638 F2.5
  Y1.1888 F5.0
  Y0.0638 F2.5
  X-0.0639 Y0.0639
  X0.1915 F5.0
  X0.0639 F2.5
  Y-1.3165 F5.0
  Y-0.0639 F2.5
  X-0.1915 F5.0
  X-0.0639 F2.5
  Y1.3165 F5.0
  Y0.0639 F2.5
  X-0.0638 Y0.0598
  G2 X0.004 Y0.004 I0.004
  G1 X0.3152 F5.0
  X0.0598 F2.5
  G2 X0.004 Y-0.004 J-0.004
  G1 Y-1.4402 F5.0
  Y-0.0598 F2.5
  G2 X-0.004 Y-0.004 I-0.004
  G1 X-0.3152 F5.0
  X-0.0598 F2.5
  G2 X-0.004 Y0.004 J0.004
  G1 Y1.4402 F5.0
  Y0.0598 F2.5
  X0.1915 Y-0.75 F5.0
  Y-0.2789 F2.5
  Y-0.2836 Z-0.05 F5.0
  Y1.125 F2.5
  X-0.0638 Y0.0638
  X0.0638 F5.0
  X0.0638 F2.5
  Y-1.1888 F5.0
  Y-0.0638 F2.5
  X-0.0638 F5.0
  X-0.0638 F2.5
  Y1.1888 F5.0
  Y0.0638 F2.5
  X-0.0639 Y0.0639
  X0.1915 F5.0
  X0.0639 F2.5
  Y-1.3165 F5.0
  Y-0.0639 F2.5
  X-0.1915 F5.0
  X-0.0639 F2.5
  Y1.3165 F5.0
  Y0.0639 F2.5
  X-0.0638 Y0.0598
  G2 X0.004 Y0.004 I0.004
  G1 X0.3152 F5.0
  X0.0598 F2.5
  G2 X0.004 Y-0.004 J-0.004
  G1 Y-1.4402 F5.0
  Y-0.0598 F2.5
  G2 X-0.004 Y-0.004 I-0.004
  G1 X-0.3152 F5.0
  X-0.0598 F2.5
  G2 X-0.004 Y0.004 J0.004
  G1 Y1.4402 F5.0
  Y0.0598 F2.5
  X0.1915 Y-0.75 F5.0
  X0.2015 Y0.75
  G3 X-0.014 Y0.014 I-0.014
  G1 X-0.375 F10.0
  G3 X-0.014 Y-0.014 J-0.014 F5.0
  G1 Y-1.5 F10.0
  G3 X0.014 Y-0.014 I0.014 F5.0
  G1 X0.375 F10.0
  G3 X0.014 Y0.014 J0.014 F5.0
  G1 Y1.5 F10.0
  X-0.2015 Y-0.75
  G0 G90 Z0.1
; --- Drill BHC ---
N0040 X1.75
  G82 X1.75 Y0.0 Z-0.5 R0.1 P0.10 F5.0
  X0.875 Y1.5155 
  X-0.875 Y1.5155 
  X-1.75 Y0.0 
  X-0.875 Y-1.5155 
  X0.875 Y-1.5155 
  G80
; --- Rapid ---
N0050 X-3.0 Y1.5 Z3.0
; --- Line ---
N0060 G1 X-3.0 Y1.5 Z-0.1 F20.0
; --- Comp Right ---
N0070 G42 G17 ; Cutter Comp Right
; --- Line ---
N0080 X-3.0 Y1.35
; --- Line ---
N0090 X-3.0 Y-1.2
; --- Line ---
N0100 X-0.566 Y-1.9182
; --- Arc CCW ---
N0110 G3 X-0.566 Y1.9182 I0.5661 J1.9182
; --- Line ---
N0120 G1 X-3.0 Y1.2
; --- Line ---
N0130 X-3.3 Y1.4
; --- Comp Off ---
N0140 G40 G17 ; Cutter Comp Off
; --- Depth Rpt ---
N0150 ; Begin code repetitions
; Retraction move 
  G0 X-3.0 Y1.5 Z0.1
; Move to start of contour 
  Z2.9
; --- Rapid Traverse ---
  X-3.0 Y1.5
; --- Linear ---
  G1 X-3.0 Y1.5 Z-0.2
; --- Cutter Comp ---
  G42 G17 ; Cutter Comp Right
; --- Linear ---
  X-3.0 Y1.35
; --- Linear ---
  X-3.0 Y-1.2
; --- Linear ---
  X-0.566 Y-1.9182
; --- Arc ---
  G3 X-0.566 Y1.9182 I0.5661 J1.9182
; --- Linear ---
  G1 X-3.0 Y1.2
; --- Linear ---
  X-3.3 Y1.4
; Retraction move 
  G0 X-3.0 Y1.5 Z0.1
; Move to start of contour 
  Z2.8
; --- Rapid Traverse ---
  X-3.0 Y1.5
; --- Linear ---
  G1 X-3.0 Y1.5 Z-0.3
; --- Cutter Comp ---
; --- Linear ---
  X-3.0 Y1.35
; --- Linear ---
  X-3.0 Y-1.2
; --- Linear ---
  X-0.566 Y-1.9182
; --- Arc ---
  G3 X-0.566 Y1.9182 I0.5661 J1.9182
; --- Linear ---
  G1 X-3.0 Y1.2
; --- Linear ---
  X-3.3 Y1.4
; Retraction move 
  G0 X-3.0 Y1.5 Z0.1
; Move to start of contour 
  Z2.7
; --- Rapid Traverse ---
  X-3.0 Y1.5
; --- Linear ---
  G1 X-3.0 Y1.5 Z-0.4
; --- Cutter Comp ---
; --- Linear ---
  X-3.0 Y1.35
; --- Linear ---
  X-3.0 Y-1.2
; --- Linear ---
  X-0.566 Y-1.9182
; --- Arc ---
  G3 X-0.566 Y1.9182 I0.5661 J1.9182
; --- Linear ---
  G1 X-3.0 Y1.2
; --- Linear ---
  X-3.3 Y1.4
; Retraction move 
  G0 X-3.0 Y1.5 Z0.1
; Move to start of contour 
  Z2.6
; --- Rapid Traverse ---
  X-3.0 Y1.5
; --- Linear ---
  G1 X-3.0 Y1.5 Z-0.5
; --- Cutter Comp ---
; --- Linear ---
  X-3.0 Y1.35
; --- Linear ---
  X-3.0 Y-1.2
; --- Linear ---
  X-0.566 Y-1.9182
; --- Arc ---
  G3 X-0.566 Y1.9182 I0.5661 J1.9182
; --- Linear ---
  G1 X-3.0 Y1.2
; --- Linear ---
  X-3.3 Y1.4
  G40 G17 ; Cutter Comp Off
; --- End Prog ---
N0160 G49 H0 M25 
  G40 ; Cutter Comp Off 
  M5 ; Spindle Off 
  M9 ; Coolant Off 
  G80 ; Cancel canned cycles 
  M30 ; End of program 
