; ICN_PATH = C:\intercon\circular Frame.icn
; --- Header ---
N0001 ; CNC code generated by Intercon v4.09 Dev Test, Rev 7
; Description: .980 inside fram
; Programmer: ded
; Date: 16-Feb-2016
  M25 G49 ; Goto Z home, cancel tool length offset 
  G17 G40 ; Setup for XY plane, no cutter comp 
  G20 ; inch measurements 
  G80 ; Cancel canned cycles 
  G90 ; absolute positioning 
  G98 ; canned cycle initial point return 
; --- Comment ---
N0002 ; 1/4" endmill 
; --- Tool #9 ---
;Tool Diameter =    0.2500  Spindle Speed = 4800
;1/4 inch end mill
  G49 H0 M25 
  G0 X0.0 Y0.0
N0003 T9 M6
  S4800 M3
  G4 P3.00 ; pause for dwell
  G43 D9
; --- M & G Codes ---
N0004 
  S3000 m3
; --- Frame (Inside Circ) ---
N0005 X0.0 Y0.366 Z0.1 H9
  G1 G91 X0.0 Y0.0 Z-0.1 F2.0
  X0.0 Y0.0 Z0.0 F10.0
  X0.0 Y0.0 Z-0.005 F2.0
  X0.0 Y0.0 Z0.0 F10.0
  G3 X-0.366 Y-0.366 Z0.0 J-0.366
  G1 X0.0 Y0.0 Z0.0
  G3 X0.366 Y-0.366 Z0.0 I0.366
  G1 X0.0 Y0.0 Z0.0
  G3 X0.366 Y0.366 Z0.0 J0.366
  G1 X0.0 Y0.0 Z0.0
  G3 X-0.366 Y0.366 Z0.0 I-0.366
  G0 G90 X0.0 Y0.366 Z0.1
; --- Coolant Off ---
N0006 M9
; --- Spindle Off ---
N0007 M5
; --- Go to Z Home ---
N0008 M25 
  X0.0 Y0.366
; --- M & G Codes ---
N0009 
  G53 Y0.0
; --- End of Program ---
N0010 G49 H0 M25
  G40 ; Cutter Comp Off 
  M5 ; Spindle Off 
  M9 ; Coolant Off 
  G80 ; Cancel canned cycles 
  M30 ; End of program 
