;  Header  
N0010 ; CNC code generated by SFP from Centroid Corp. v. 5.23
; Program:      F2.ICN
; Programmer:   MTD
; Date:   Thu Dec 07 10:32:19 1995
M25 G49    ; Goto Z home, cancel tool length offset 
G17 G40    ; Setup for XY plane, no cutter comp,
G20        ; inch measurements,
G80        ; cancel canned cycles,
G90        ; absolute positioning,
G98        ; canned cycle initial point return 
;  Rapid traverse  
N0020 G0 X0.25 Y0 Z0
;  Linear mill  
N0030 G1 X0.25 Y0 Z-0.15 F1
;  Arc mill end  
N0040 G3 X1 Y0.1 Z-0.1 I-0.1513 J3.9971 F5
;  Linear mill  
N0050 G1 X0.9 Y0
;  Arc mill end  
N0060 G3 X3 Y0.4 Z-0.05 I0.0405 J5.4999
;  Arc mill end  
N0070 G2 X2.8 Y0.1 I-0.2995 J-0.017
;  Arc mill end  
N0080  X1.1 Y-0.225 Z-0.1 I-1.8699 J5.1724
;  Rapid traverse  
N0090 M25
G0 X2.8 Y0.1
;  Rapid traverse  
N0100  X2.8 Y0.1 Z0
;  Arc mill end  
N0110 G2 X2.6 Y-0.175 Z-0.05 I-0.3474 J0.0424
;  Arc mill end  
N0120  X1.3 Y-0.4 Z-0.1 I-1.5812 J5.2678
;  Rapid traverse  
N0130 M25
G0 X2.6 Y-0.175
;  Rapid traverse  
N0140  X2.6 Y-0.175 Z0
;  Arc mill end  
N0150 G2 X2.4 Y-0.45 Z-0.05 I-0.3474 J0.0424
;  Arc mill end  
N0160  X1.5 Y-0.575 Z-0.1 I-1.204 J5.3666
;  Rapid traverse  
N0170 M25
G0 X2.4 Y-0.45
;  Rapid traverse  
N0180  X2.4 Y-0.45 Z0
;  Arc mill end  
N0190 G2 X2.2 Y-0.65 Z-0.05 I-0.3646 J0.1646
;  Arc mill end  
N0200  X1.7 Y-0.725 Z-0.1 I-1.065 J5.3959
;  Rapid traverse  
N0210 M25
G0 X2.2 Y-0.65
;  Rapid traverse  
N0220  X2.2 Y-0.65 Z0
;  Arc mill end  
N0230 G2 X2 Y-0.8 Z-0.05 I-0.2299 J0.0982
;  Arc mill end  
N0240  X1.9 Y-0.825 Z-0.1 I-1.2626 J4.838
;  Rapid traverse  
N0250 M25
G0 X2 Y-0.8
;  Rapid traverse  
N0260  X2 Y-0.8 Z0
;  Arc mill end  
N0270 G2 X1.9 Y-0.975 Z-0.05 I-0.2 J-0.0018
;  Arc mill end  
N0280  X0.25 Y-0.75 Z-0.1 I-0.5793 J1.9143
;  Mirror  
N0290  ; Begin code repetitions 
 ;  Retraction move  
M25
G0 X-0.25 Y0
 ;  Move to start of contour  
 Z0
;  Rapid traverse  
 X-0.25 Y0
;  Linear mill  
G1 X-0.25 Y0 Z-0.15 F1
;  Arc mill end  
G2 X-1 Y0.1 Z-0.1 I0.1513 J3.9971 F5
;  Linear mill  
G1 X-0.9 Y0
;  Arc mill end  
G2 X-3 Y0.4 Z-0.05 I-0.0405 J5.4999
;  Arc mill end  
G3 X-2.8 Y0.1 I0.2995 J-0.017
;  Arc mill end  
 X-1.1 Y-0.225 Z-0.1 I1.8699 J5.1724
;  Rapid traverse  
M25
G0 X-2.8 Y0.1
;  Rapid traverse  
 X-2.8 Y0.1 Z0
;  Arc mill end  
G3 X-2.6 Y-0.175 Z-0.05 I0.3474 J0.0424
;  Arc mill end  
 X-1.3 Y-0.4 Z-0.1 I1.5812 J5.2678
;  Rapid traverse  
M25
G0 X-2.6 Y-0.175
;  Rapid traverse  
 X-2.6 Y-0.175 Z0
;  Arc mill end  
G3 X-2.4 Y-0.45 Z-0.05 I0.3474 J0.0424
;  Arc mill end  
 X-1.5 Y-0.575 Z-0.1 I1.204 J5.3666
;  Rapid traverse  
M25
G0 X-2.4 Y-0.45
;  Rapid traverse  
 X-2.4 Y-0.45 Z0
;  Arc mill end  
G3 X-2.2 Y-0.65 Z-0.05 I0.3646 J0.1646
;  Arc mill end  
 X-1.7 Y-0.725 Z-0.1 I1.065 J5.3959
;  Rapid traverse  
M25
G0 X-2.2 Y-0.65
;  Rapid traverse  
 X-2.2 Y-0.65 Z0
;  Arc mill end  
G3 X-2 Y-0.8 Z-0.05 I0.2299 J0.0982
;  Arc mill end  
 X-1.9 Y-0.825 Z-0.1 I1.2626 J4.838
;  Rapid traverse  
M25
G0 X-2 Y-0.8
;  Rapid traverse  
 X-2 Y-0.8 Z0
;  Arc mill end  
G3 X-1.9 Y-0.975 Z-0.05 I0.2 J-0.0018
;  Arc mill end  
 X-0.25 Y-0.75 Z-0.1 I0.5793 J1.9143
;  Rapid traverse  
N0300 M25
G0 X-0.25 Y-0.75
;  Rapid traverse  
N0310  X-0.25 Y-0.75 Z-0.1
;  Arc mill end  
N0320 G2 X-0.75 Y-1.75 I-0.9916 J-0.1292
;  Arc mill end  
N0330 G3 X-0.375 Y-1.75 I0.1875 J0.0696
;  Arc mill end  
N0340  X0 Y-1.85 I0.1924 J-0.0314
;  Mirror  
N0350  ; Begin code repetitions 
 ;  Retraction move  
M25
G0 X0.25 Y-0.75
 ;  Move to start of contour  
G1 Z-0.1
;  Arc mill end  
G3 X0.75 Y-1.75 I0.9916 J-0.1292
;  Arc mill end  
G2 X0.375 Y-1.75 I-0.1875 J0.0696
;  Arc mill end  
 X0 Y-1.85 I-0.1924 J-0.0314
;  Rapid traverse  
N0360 M25
G0 X-0.25 Y0
;  Rapid traverse  
N0370  X-0.25 Y0 Z-0.1
;  Arc mill end  
N0380 G3 X-0.325 Y0.55 I-0.7279 J0.1809
;  Linear mill  
N0390 G1 X0.25 Y0.55
;  Arc mill end  
N0400 G2 X0.425 Y0.275 I-0.0103 J-0.1997
;  Arc mill end  
N0410 G3 X0.25 Y0.2 I-0.0754 J-0.0656
;  Linear mill  
N0420 G1 X0.25 Y0
;  Rapid traverse  
N0430 G0 X-0.05 Y3.2 Z0
;  Linear mill  
N0440 G1 X0 Y3.375
;  Linear mill  
N0450  X0.05 Y3.2
;  Rotate  
N0460  ; Begin code repetitions 
 ;  Retraction move  
M25
G0 X-0.05 Y3.2
 ;  Move to start of contour  
G1 Z0
;  Linear mill  
 X0 Y3.375
;  Linear mill  
 X0.05 Y3.2
 ;  Retraction move  
M25
G0 X-0.082 Y3.1041
 ;  Move to start of contour  
G1 Z0
;  Linear mill  
 X-0.233 Y3.2057
;  Linear mill  
 X-0.0511 Y3.1992
 ;  Retraction move  
M25
G0 X-0.0007 Y3.044
 ;  Move to start of contour  
G1 Z0
;  Linear mill  
 X-0.144 Y2.9318
;  Linear mill  
 X-0.0816 Y3.1028
 ;  Retraction move  
M25
G0 X0.0816 Y3.1028
 ;  Move to start of contour  
G1 Z0
;  Linear mill  
 X0.144 Y2.9318
;  Linear mill  
 X0.0007 Y3.044
 ;  Retraction move  
M25
G0 X0.0511 Y3.1992
 ;  Move to start of contour  
G1 Z0
;  Linear mill  
 X0.233 Y3.2057
;  Linear mill  
 X0.082 Y3.1041
;  Rotate  
N0470  ; Begin code repetitions 
 ;  Retraction move  
M25
G0 X-0.05 Y3.2
 ;  Move to start of contour  
G1 Z0
;  Linear mill  
 X0 Y3.375
;  Linear mill  
 X0.05 Y3.2
;  Rotate  
 ; Begin code repetitions 
 ;  Retraction move  
M25
G0 X-0.05 Y3.2
 ;  Move to start of contour  
G1 Z0
;  Linear mill  
 X0 Y3.375
;  Linear mill  
 X0.05 Y3.2
 ;  Retraction move  
M25
G0 X-0.082 Y3.1041
 ;  Move to start of contour  
G1 Z0
;  Linear mill  
 X-0.233 Y3.2057
;  Linear mill  
 X-0.0511 Y3.1992
 ;  Retraction move  
M25
G0 X-0.0007 Y3.044
 ;  Move to start of contour  
G1 Z0
;  Linear mill  
 X-0.144 Y2.9318
;  Linear mill  
 X-0.0816 Y3.1028
 ;  Retraction move  
M25
G0 X0.0816 Y3.1028
 ;  Move to start of contour  
G1 Z0
;  Linear mill  
 X0.144 Y2.9318
;  Linear mill  
 X0.0007 Y3.044
 ;  Retraction move  
M25
G0 X0.0511 Y3.1992
 ;  Move to start of contour  
G1 Z0
;  Linear mill  
 X0.233 Y3.2057
;  Linear mill  
 X0.082 Y3.1041
 ;  Retraction move  
M25
G0 X-2.2153 Y2.464
 ;  Move to start of contour  
G1 Z0
;  Linear mill  
 X-2.2777 Y2.6349
;  Linear mill  
 X-2.1344 Y2.5228
;  Rotate  
 ; Begin code repetitions 
 ;  Retraction move  
M25
G0 X-2.2153 Y2.464
 ;  Move to start of contour  
G1 Z0
;  Linear mill  
 X-2.2777 Y2.6349
;  Linear mill  
 X-2.1344 Y2.5228
 ;  Retraction move  
M25
G0 X-2.1848 Y2.3675
 ;  Move to start of contour  
G1 Z0
;  Linear mill  
 X-2.3667 Y2.361
;  Linear mill  
 X-2.2157 Y2.4627
 ;  Retraction move  
M25
G0 X-2.0837 Y2.3667
 ;  Move to start of contour  
G1 Z0
;  Linear mill  
 X-2.1337 Y2.1917
;  Linear mill  
 X-2.1837 Y2.3667
 ;  Retraction move  
M25
G0 X-2.0516 Y2.4627
 ;  Move to start of contour  
G1 Z0
;  Linear mill  
 X-1.9007 Y2.361
;  Linear mill  
 X-2.0825 Y2.3675
 ;  Retraction move  
M25
G0 X-2.133 Y2.5228
 ;  Move to start of contour  
G1 Z0
;  Linear mill  
 X-1.9897 Y2.6349
;  Linear mill  
 X-2.0521 Y2.464
 ;  Retraction move  
M25
G0 X-3.5344 Y0.5958
 ;  Move to start of contour  
G1 Z0
;  Linear mill  
 X-3.6853 Y0.6974
;  Linear mill  
 X-3.5035 Y0.6909
;  Rotate  
 ; Begin code repetitions 
 ;  Retraction move  
M25
G0 X-3.5344 Y0.5958
 ;  Move to start of contour  
G1 Z0
;  Linear mill  
 X-3.6853 Y0.6974
;  Linear mill  
 X-3.5035 Y0.6909
 ;  Retraction move  
M25
G0 X-3.453 Y0.5357
 ;  Move to start of contour  
G1 Z0
;  Linear mill  
 X-3.5963 Y0.4235
;  Linear mill  
 X-3.5339 Y0.5945
 ;  Retraction move  
M25
G0 X-3.3707 Y0.5945
 ;  Move to start of contour  
G1 Z0
;  Linear mill  
 X-3.3083 Y0.4235
;  Linear mill  
 X-3.4516 Y0.5357
 ;  Retraction move  
M25
G0 X-3.4012 Y0.6909
 ;  Move to start of contour  
G1 Z0
;  Linear mill  
 X-3.2193 Y0.6974
;  Linear mill  
 X-3.3703 Y0.5958
 ;  Retraction move  
M25
G0 X-3.5023 Y0.6917
 ;  Move to start of contour  
G1 Z0
;  Linear mill  
 X-3.4523 Y0.8667
;  Linear mill  
 X-3.4023 Y0.6917
 ;  Retraction move  
M25
G0 X-3.5035 Y-1.6909
 ;  Move to start of contour  
G1 Z0
;  Linear mill  
 X-3.6853 Y-1.6974
;  Linear mill  
 X-3.5344 Y-1.5958
;  Rotate  
 ; Begin code repetitions 
 ;  Retraction move  
M25
G0 X-3.5035 Y-1.6909
 ;  Move to start of contour  
G1 Z0
;  Linear mill  
 X-3.6853 Y-1.6974
;  Linear mill  
 X-3.5344 Y-1.5958
 ;  Retraction move  
M25
G0 X-3.4023 Y-1.6917
 ;  Move to start of contour  
G1 Z0
;  Linear mill  
 X-3.4523 Y-1.8667
;  Linear mill  
 X-3.5023 Y-1.6917
 ;  Retraction move  
M25
G0 X-3.3703 Y-1.5958
 ;  Move to start of contour  
G1 Z0
;  Linear mill  
 X-3.2193 Y-1.6974
;  Linear mill  
 X-3.4012 Y-1.6909
 ;  Retraction move  
M25
G0 X-3.4516 Y-1.5357
 ;  Move to start of contour  
G1 Z0
;  Linear mill  
 X-3.3083 Y-1.4235
;  Linear mill  
 X-3.3707 Y-1.5945
 ;  Retraction move  
M25
G0 X-3.5339 Y-1.5945
 ;  Move to start of contour  
G1 Z0
;  Linear mill  
 X-3.5963 Y-1.4235
;  Linear mill  
 X-3.453 Y-1.5357
 ;  Retraction move  
M25
G0 X-2.1344 Y-3.5228
 ;  Move to start of contour  
G1 Z0
;  Linear mill  
 X-2.2777 Y-3.6349
;  Linear mill  
 X-2.2153 Y-3.464
;  Rotate  
 ; Begin code repetitions 
 ;  Retraction move  
M25
G0 X-2.1344 Y-3.5228
 ;  Move to start of contour  
G1 Z0
;  Linear mill  
 X-2.2777 Y-3.6349
;  Linear mill  
 X-2.2153 Y-3.464
 ;  Retraction move  
M25
G0 X-2.0521 Y-3.464
 ;  Move to start of contour  
G1 Z0
;  Linear mill  
 X-1.9897 Y-3.6349
;  Linear mill  
 X-2.133 Y-3.5228
 ;  Retraction move  
M25
G0 X-2.0825 Y-3.3675
 ;  Move to start of contour  
G1 Z0
;  Linear mill  
 X-1.9007 Y-3.361
;  Linear mill  
 X-2.0516 Y-3.4627
 ;  Retraction move  
M25
G0 X-2.1837 Y-3.3667
 ;  Move to start of contour  
G1 Z0
;  Linear mill  
 X-2.1337 Y-3.1917
;  Linear mill  
 X-2.0837 Y-3.3667
 ;  Retraction move  
M25
G0 X-2.2157 Y-3.4627
 ;  Move to start of contour  
G1 Z0
;  Linear mill  
 X-2.3667 Y-3.361
;  Linear mill  
 X-2.1848 Y-3.3675
 ;  Retraction move  
M25
G0 X0.05 Y-4.2
 ;  Move to start of contour  
G1 Z0
;  Linear mill  
 X0 Y-4.375
;  Linear mill  
 X-0.05 Y-4.2
;  Rotate  
 ; Begin code repetitions 
 ;  Retraction move  
M25
G0 X0.05 Y-4.2
 ;  Move to start of contour  
G1 Z0
;  Linear mill  
 X0 Y-4.375
;  Linear mill  
 X-0.05 Y-4.2
 ;  Retraction move  
M25
G0 X0.082 Y-4.1041
 ;  Move to start of contour  
G1 Z0
;  Linear mill  
 X0.233 Y-4.2057
;  Linear mill  
 X0.0511 Y-4.1992
 ;  Retraction move  
M25
G0 X0.0007 Y-4.044
 ;  Move to start of contour  
G1 Z0
;  Linear mill  
 X0.144 Y-3.9318
;  Linear mill  
 X0.0816 Y-4.1028
 ;  Retraction move  
M25
G0 X-0.0816 Y-4.1028
 ;  Move to start of contour  
G1 Z0
;  Linear mill  
 X-0.144 Y-3.9318
;  Linear mill  
 X-0.0007 Y-4.044
 ;  Retraction move  
M25
G0 X-0.0511 Y-4.1992
 ;  Move to start of contour  
G1 Z0
;  Linear mill  
 X-0.233 Y-4.2057
;  Linear mill  
 X-0.082 Y-4.1041
 ;  Retraction move  
M25
G0 X2.2153 Y-3.464
 ;  Move to start of contour  
G1 Z0
;  Linear mill  
 X2.2777 Y-3.6349
;  Linear mill  
 X2.1344 Y-3.5228
;  Rotate  
 ; Begin code repetitions 
 ;  Retraction move  
M25
G0 X2.2153 Y-3.464
 ;  Move to start of contour  
G1 Z0
;  Linear mill  
 X2.2777 Y-3.6349
;  Linear mill  
 X2.1344 Y-3.5228
 ;  Retraction move  
M25
G0 X2.1848 Y-3.3675
 ;  Move to start of contour  
G1 Z0
;  Linear mill  
 X2.3667 Y-3.361
;  Linear mill  
 X2.2157 Y-3.4627
 ;  Retraction move  
M25
G0 X2.0837 Y-3.3667
 ;  Move to start of contour  
G1 Z0
;  Linear mill  
 X2.1337 Y-3.1917
;  Linear mill  
 X2.1837 Y-3.3667
 ;  Retraction move  
M25
G0 X2.0516 Y-3.4627
 ;  Move to start of contour  
G1 Z0
;  Linear mill  
 X1.9007 Y-3.361
;  Linear mill  
 X2.0825 Y-3.3675
 ;  Retraction move  
M25
G0 X2.133 Y-3.5228
 ;  Move to start of contour  
G1 Z0
;  Linear mill  
 X1.9897 Y-3.6349
;  Linear mill  
 X2.0521 Y-3.464
 ;  Retraction move  
M25
G0 X3.5344 Y-1.5958
 ;  Move to start of contour  
G1 Z0
;  Linear mill  
 X3.6853 Y-1.6974
;  Linear mill  
 X3.5035 Y-1.6909
;  Rotate  
 ; Begin code repetitions 
 ;  Retraction move  
M25
G0 X3.5344 Y-1.5958
 ;  Move to start of contour  
G1 Z0
;  Linear mill  
 X3.6853 Y-1.6974
;  Linear mill  
 X3.5035 Y-1.6909
 ;  Retraction move  
M25
G0 X3.453 Y-1.5357
 ;  Move to start of contour  
G1 Z0
;  Linear mill  
 X3.5963 Y-1.4235
;  Linear mill  
 X3.5339 Y-1.5945
 ;  Retraction move  
M25
G0 X3.3707 Y-1.5945
 ;  Move to start of contour  
G1 Z0
;  Linear mill  
 X3.3083 Y-1.4235
;  Linear mill  
 X3.4516 Y-1.5357
 ;  Retraction move  
M25
G0 X3.4012 Y-1.6909
 ;  Move to start of contour  
G1 Z0
;  Linear mill  
 X3.2193 Y-1.6974
;  Linear mill  
 X3.3703 Y-1.5958
 ;  Retraction move  
M25
G0 X3.5023 Y-1.6917
 ;  Move to start of contour  
G1 Z0
;  Linear mill  
 X3.4523 Y-1.8667
;  Linear mill  
 X3.4023 Y-1.6917
 ;  Retraction move  
M25
G0 X3.5035 Y0.6909
 ;  Move to start of contour  
G1 Z0
;  Linear mill  
 X3.6853 Y0.6974
;  Linear mill  
 X3.5344 Y0.5958
;  Rotate  
 ; Begin code repetitions 
 ;  Retraction move  
M25
G0 X3.5035 Y0.6909
 ;  Move to start of contour  
G1 Z0
;  Linear mill  
 X3.6853 Y0.6974
;  Linear mill  
 X3.5344 Y0.5958
 ;  Retraction move  
M25
G0 X3.4023 Y0.6917
 ;  Move to start of contour  
G1 Z0
;  Linear mill  
 X3.4523 Y0.8667
;  Linear mill  
 X3.5023 Y0.6917
 ;  Retraction move  
M25
G0 X3.3703 Y0.5958
 ;  Move to start of contour  
G1 Z0
;  Linear mill  
 X3.2193 Y0.6974
;  Linear mill  
 X3.4012 Y0.6909
 ;  Retraction move  
M25
G0 X3.4516 Y0.5357
 ;  Move to start of contour  
G1 Z0
;  Linear mill  
 X3.3083 Y0.4235
;  Linear mill  
 X3.3707 Y0.5945
 ;  Retraction move  
M25
G0 X3.5339 Y0.5945
 ;  Move to start of contour  
G1 Z0
;  Linear mill  
 X3.5963 Y0.4235
;  Linear mill  
 X3.453 Y0.5357
 ;  Retraction move  
M25
G0 X2.1344 Y2.5228
 ;  Move to start of contour  
G1 Z0
;  Linear mill  
 X2.2777 Y2.6349
;  Linear mill  
 X2.2153 Y2.464
;  Rotate  
 ; Begin code repetitions 
 ;  Retraction move  
M25
G0 X2.1344 Y2.5228
 ;  Move to start of contour  
G1 Z0
;  Linear mill  
 X2.2777 Y2.6349
;  Linear mill  
 X2.2153 Y2.464
 ;  Retraction move  
M25
G0 X2.0521 Y2.464
 ;  Move to start of contour  
G1 Z0
;  Linear mill  
 X1.9897 Y2.6349
;  Linear mill  
 X2.133 Y2.5228
 ;  Retraction move  
M25
G0 X2.0825 Y2.3675
 ;  Move to start of contour  
G1 Z0
;  Linear mill  
 X1.9007 Y2.361
;  Linear mill  
 X2.0516 Y2.4627
 ;  Retraction move  
M25
G0 X2.1837 Y2.3667
 ;  Move to start of contour  
G1 Z0
;  Linear mill  
 X2.1337 Y2.1917
;  Linear mill  
 X2.0837 Y2.3667
 ;  Retraction move  
M25
G0 X2.2157 Y2.4627
 ;  Move to start of contour  
G1 Z0
;  Linear mill  
 X2.3667 Y2.361
;  Linear mill  
 X2.1848 Y2.3675
;  End of program  
N0480 G49 H0 M25
G40        ; Cutter comp off
M5         ; Spindle Off
M9         ; Coolant Off
G80        ; Cancel canned cycles
 ; End of program
