; --- Header ---
N0010 ; CNC code generated by Intercon v8.00
; Program: IRREG
; Programmer: scottb
; Date: 28-Jun-2002
  M25 G49 ; Goto Z home, cancel tool length offset 
  G17 G40 ; Setup for XY plane, no cutter comp 
  G20 ; inch measurements 
  G80 ; cancel canned cycles 
  G90 ; absolute positioning 
  G98 ; canned cycle initial point return 
; --- (null)1 ---
  G49 H0 M25 
  G0 X5.5 Y-5.5
N0020 T1 M6
  S3500 M3
  M8
  G4 P3.00 ; pause for dwell
  G43 D1
; --- Cleanout ---
N0030 
  X0.0 Y-5.45 Z0.1 H1 F30.0
  G1 X0.0 Y-5.45 Z-0.25 F10.0
  X-3.4901 Y-5.45 F21.0
  G2 X-3.5238 Y-5.4494 J0.95 F21.0
  G1 X3.5238 Y-5.4494 F30.0
  G3 X4.3271 Y-4.9494 I-0.0337 J0.9494 F21.0
  G1 X-4.3271 Y-4.9494 F30.0
  G2 X-4.4401 Y-4.5 I0.837 J0.4494 F21.0
  X-4.4387 Y-4.4494 I0.95 F21.0
  G1 X4.4387 Y-4.4494 F30.0
  G3 X4.429 Y-4.3551 I-0.9486 J-0.0506 F21.0
  G1 X4.3664 Y-3.9494 F21.0
  X-4.3664 Y-3.9494 F30.0
  X-4.2892 Y-3.4494 F21.0
  X4.2892 Y-3.4494 F30.0
  X4.2121 Y-2.9494 F21.0
  X-4.2121 Y-2.9494 F30.0
  X-4.1349 Y-2.4494 F21.0
  X4.1349 Y-2.4494 F30.0
  X4.0577 Y-1.9494 F21.0
  X-4.0577 Y-1.9494 F30.0
  X-3.9806 Y-1.4494 F21.0
  X3.9806 Y-1.4494 F30.0
  X3.9034 Y-0.9494 F21.0
  X-3.9034 Y-0.9494 F30.0
  X-3.8263 Y-0.4494 F21.0
  X3.8263 Y-0.4494 F30.0
  X3.761 Y-0.0267 F21.0
  G2 X3.759 Y0.0 I0.173 J0.0267 F21.0
  X3.761 Y0.0267 I0.175 F21.0
  G1 X3.7647 Y0.0506 F21.0
  X-3.7647 Y0.0506 F30.0
  X-3.8419 Y0.5506 F21.0
  X3.8419 Y0.5506 F30.0
  X3.919 Y1.0506 F21.0
  X-3.919 Y1.0506 F30.0
  X-3.9962 Y1.5506 F21.0
  X3.9962 Y1.5506 F30.0
  X4.0734 Y2.0506 F21.0
  X-4.0734 Y2.0506 F30.0
  X-4.1505 Y2.5506 F21.0
  X4.1505 Y2.5506 F30.0
  X4.2277 Y3.0506 F21.0
  X-4.2277 Y3.0506 F30.0
  X-4.3048 Y3.5506 F21.0
  X4.3048 Y3.5506 F30.0
  X4.382 Y4.0506 F21.0
  X-4.382 Y4.0506 F30.0
  X-4.429 Y4.3551 F21.0
  G2 X-4.4401 Y4.5 I0.9389 J0.1449 F21.0
  X-4.4387 Y4.5506 I0.95 F21.0
  G1 X4.4387 Y4.5506 F30.0
  G3 X4.2643 Y5.0506 I-0.9486 J-0.0506 F21.0
  G1 X-4.2643 Y5.0506 F30.0
  X-4.2643 Y5.0506 Z0.1
  G0 X0.0 Y-5.45
  G1 X0.0 Y-5.45 Z-0.25
  X0.0 Y-5.45 Z-0.5 F10.0
  X-3.4901 Y-5.45 F21.0
  G2 X-3.5238 Y-5.4494 J0.95 F21.0
  G1 X3.5238 Y-5.4494 F30.0
  G3 X4.3271 Y-4.9494 I-0.0337 J0.9494 F21.0
  G1 X-4.3271 Y-4.9494 F30.0
  G2 X-4.4401 Y-4.5 I0.837 J0.4494 F21.0
  X-4.4387 Y-4.4494 I0.95 F21.0
  G1 X4.4387 Y-4.4494 F30.0
  G3 X4.429 Y-4.3551 I-0.9486 J-0.0506 F21.0
  G1 X4.3664 Y-3.9494 F21.0
  X-4.3664 Y-3.9494 F30.0
  X-4.2892 Y-3.4494 F21.0
  X4.2892 Y-3.4494 F30.0
  X4.2121 Y-2.9494 F21.0
  X-4.2121 Y-2.9494 F30.0
  X-4.1349 Y-2.4494 F21.0
  X4.1349 Y-2.4494 F30.0
  X4.0577 Y-1.9494 F21.0
  X-4.0577 Y-1.9494 F30.0
  X-3.9806 Y-1.4494 F21.0
  X3.9806 Y-1.4494 F30.0
  X3.9034 Y-0.9494 F21.0
  X-3.9034 Y-0.9494 F30.0
  X-3.8263 Y-0.4494 F21.0
  X3.8263 Y-0.4494 F30.0
  X3.761 Y-0.0267 F21.0
  G2 X3.759 Y0.0 I0.173 J0.0267 F21.0
  X3.761 Y0.0267 I0.175 F21.0
  G1 X3.7647 Y0.0506 F21.0
  X-3.7647 Y0.0506 F30.0
  X-3.8419 Y0.5506 F21.0
  X3.8419 Y0.5506 F30.0
  X3.919 Y1.0506 F21.0
  X-3.919 Y1.0506 F30.0
  X-3.9962 Y1.5506 F21.0
  X3.9962 Y1.5506 F30.0
  X4.0734 Y2.0506 F21.0
  X-4.0734 Y2.0506 F30.0
  X-4.1505 Y2.5506 F21.0
  X4.1505 Y2.5506 F30.0
  X4.2277 Y3.0506 F21.0
  X-4.2277 Y3.0506 F30.0
  X-4.3048 Y3.5506 F21.0
  X4.3048 Y3.5506 F30.0
  X4.382 Y4.0506 F21.0
  X-4.382 Y4.0506 F30.0
  X-4.429 Y4.3551 F21.0
  G2 X-4.4401 Y4.5 I0.9389 J0.1449 F21.0
  X-4.4387 Y4.5506 I0.95 F21.0
  G1 X4.4387 Y4.5506 F30.0
  G3 X4.2643 Y5.0506 I-0.9486 J-0.0506 F21.0
  G1 X-4.2643 Y5.0506 F30.0
  X-4.2643 Y5.0506 Z0.1
  G0 X0.0 Y-5.45
  G1 X0.0 Y-5.45 Z-0.5
  X0.0 Y-5.45
  X-3.4901 Y-5.45
  G2 X-4.4401 Y-4.5 J0.95
  X-4.429 Y-4.3551 I0.95
  G1 X-3.761 Y-0.0267
  G3 X-3.759 Y0.0 I-0.173 J0.0267
  X-3.761 Y0.0267 I-0.175
  G1 X-4.429 Y4.3551
  G2 X-4.4401 Y4.5 I0.9389 J0.1449
  X-3.4901 Y5.45 I0.95
  G1 X-0.5 Y5.45
  X3.4901 Y5.45
  G2 X4.4401 Y4.5 J-0.95
  X4.429 Y4.3551 I-0.95
  G1 X3.761 Y0.0267
  G3 X3.759 Y0.0 I0.173 J-0.0267
  X3.761 Y-0.0267 I0.175
  G1 X4.429 Y-4.3551
  G2 X4.4401 Y-4.5 I-0.9389 J-0.1449
  X3.4901 Y-5.45 I-0.95
  G1 X0.0 Y-5.45
  X0.0 Y-5.45 Z0.1
  G0 X0.0 Y-5.45
  G1 X0.0 Y-5.45 Z-0.5
  X0.0 Y-5.5
  X0.0 Y-5.5
  X3.4901 Y-5.5
  G3 X4.4901 Y-4.5 J1.0
  X4.4784 Y-4.3475 I-1.0
  G1 X3.8105 Y-0.0191
  G2 X3.8105 Y0.0191 I0.1235 J0.0191
  G1 X4.4784 Y4.3475
  G3 X4.4901 Y4.5 I-0.9883 J0.1525
  X3.4901 Y5.5 I-1.0
  G1 X-0.5 Y5.5
  X-3.4901 Y5.5
  G3 X-4.4901 Y4.5 J-1.0
  X-4.4784 Y4.3475 I1.0
  G1 X-3.8105 Y0.0191
  G2 X-3.8105 Y-0.0191 I-0.1235 J-0.0191
  G1 X-4.4784 Y-4.3475
  G3 X-4.4901 Y-4.5 I0.9883 J-0.1525
  X-3.4901 Y-5.5 I1.0
  G1 X0.0 Y-5.5
  X0.0 Y-5.5 Z0.1
; --- End Cleanout ---
; --- End Prog ---
N0130 G49 H0 M25 
  G0 X-0.5 Y5.625
  G40 ; Cutter comp off 
  M5 ; Spindle Off 
  M9 ; Coolant Off 
  G80 ; Cancel canned cycles 
  M30 ; End of program 
