; ICN_PATH = C:\intercon\Lathe tool block.icn
; --- Header ---
N0001 ; CNC code generated by Intercon v4.09 Dev Test, Rev 7
; Description: mill thickness down
; Programmer: ded
; Date: 15-Feb-2016
  M25 G49 ; Goto Z home, cancel tool length offset 
  G17 G40 ; Setup for XY plane, no cutter comp 
  G20 ; inch measurements 
  G80 ; Cancel canned cycles 
  G90 ; absolute positioning 
  G98 ; canned cycle initial point return 
; --- Comment ---
N0002 ; 1/2" 4 flute end mill 
; --- Tool #3 ---
;Tool Diameter =    0.5000  Spindle Speed = 3200
;1/2" end mill
  G49 H0 M25 
  G0 X0.0 Y0.0
N0003 T3 M6
  S3200 M3
  G4 P3.00 ; pause for dwell
  G43 D3
; --- Rapid Traverse ---
N0004 X0.9 Y-0.5 Z-0.025 H3
; --- Comp Left ---
N0005 G41 G17 ; Cutter Comp Left
; --- Line ---
N0006 G1 X0.3 Y-0.25 Z-0.025 F20.0
; --- Line ---
N0007 X-2.75 Y-0.25 Z-0.025 F8.0
; --- Comp Off ---
N0008 G40 G17 ; Cutter Comp Off
; --- Line ---
N0009 X-3.0 Y-0.5 Z-0.025 F25.0
; --- Rapid Traverse ---
N0010 G0 X-3.0 Y-0.5 Z0.975
; --- Rapid Traverse ---
N0011 X0.9 Y-0.252 Z-0.025
; --- Comp Left ---
N0012 G41 G17 ; Cutter Comp Left
; --- Line ---
N0013 G1 X0.3 Y0.008 Z-0.025 F20.0
; --- Line ---
N0014 X-2.75 Y0.008 Z-0.025 F8.0
; --- Comp Off ---
N0015 G40 G17 ; Cutter Comp Off
; --- Line ---
N0016 X-3.0 Y-0.242 Z-0.025 F25.0
; --- Rapid Traverse ---
N0017 G0 X-3.0 Y-0.242 Z0.975
; --- Repeat to Depth ---
N0018 ; Begin code repetitions
; Retraction move 
  X0.9 Y-0.5 Z1.0
; Move to start of contour 
  X0.9 Y-0.5 Z-0.05
; --- Rapid Traverse ---
  X0.9 Y-0.5 Z-0.05
; --- Cutter Comp ---
  G41 G17 ; Cutter Comp Left
; --- Linear ---
  G1 X0.3 Y-0.25 Z-0.05 F20.0
; --- Linear ---
  X-2.75 Y-0.25 Z-0.05 F8.0
; --- Cutter Comp ---
  G40 G17 ; Cutter Comp Off
; --- Linear ---
  X-3.0 Y-0.5 Z-0.05 F25.0
; --- Rapid Traverse ---
  G0 X-3.0 Y-0.5 Z0.95
; --- Rapid Traverse ---
  X0.9 Y-0.252 Z-0.05
; --- Cutter Comp ---
  G41 G17 ; Cutter Comp Left
; --- Linear ---
  G1 X0.3 Y0.008 Z-0.05 F20.0
; --- Linear ---
  X-2.75 Y0.008 Z-0.05 F8.0
; --- Cutter Comp ---
  G40 G17 ; Cutter Comp Off
; --- Linear ---
  X-3.0 Y-0.242 Z-0.05 F25.0
; --- Rapid Traverse ---
  G0 X-3.0 Y-0.242 Z0.95
; --- Rapid Traverse ---
N0019 X-3.0 Y-0.242 Z1.0
; --- Coolant Off ---
N0020 M9
; --- Spindle Off ---
N0021 M5
; --- Go to Z Home ---
N0022 M25 
  X-3.0 Y-0.242
; --- M & G Codes ---
N0023 
  G53 Y0.0
; --- End of Program ---
N0024 G49 H0 M25
  G40 ; Cutter Comp Off 
  M5 ; Spindle Off 
  M9 ; Coolant Off 
  G80 ; Cancel canned cycles 
  M30 ; End of program 
