; ICN_PATH = C:\intercon\SEM_coverplat 2.icn
; --- Header ---
N0001 ; CNC code generated by Intercon v4.09 Dev Test, Rev 7
; Description: eztrak motor cover
; Programmer: jkm
; Date: 13-Jan-2015
  M25 G49 ; Goto Z home, cancel tool length offset 
  G17 G40 ; Setup for XY plane, no cutter comp 
  G20 ; inch measurements 
  G80 ; Cancel canned cycles 
  G90 ; absolute positioning 
  G98 ; canned cycle initial point return 
; --- Tool #1 ---
;Tool Diameter =    0.0500  Spindle Speed = 1200
;Center Drill
  G49 H0 M25 
  G0 X0.0 Y0.0
N0002 T1 M6
  S1200 M3
  G4 P3.00 ; pause for dwell
  G43 D1
; --- Drill Array ---
N0003 X0.37 Y0.402 Z0.1 H1
  G81 X0.37 Y0.402 Z-0.05 R0.1 F15.0
  X1.88 Y0.402 
  X1.88 Y3.038 
  X0.37 Y3.038 
  G80
; --- Drill Bolt Hole Circle ---
N0004 X1.8166 Y2.4116 Z0.1
  G81 X1.8166 Y2.4116 Z-0.025 R0.1 F15.0
  X0.4334 Y2.4116 
  X0.4334 Y1.0284 
  X1.8166 Y1.0284 
  G80
; --- Repeat ---
N0005 ; Begin code repetitions
; Retraction move 
  X3.37 Y0.402 Z0.2
; Move to start of contour 
  X3.37 Y0.402 Z0.1
; --- Drill Array ---
  X3.37 Y0.402 Z0.1
  G81 X3.37 Y0.402 Z-0.05 R0.1 F15.0
  X4.88 Y0.402 
  X4.88 Y3.038 
  X3.37 Y3.038 
  G80
; --- Drill Bolt Hole Circle ---
  X4.8166 Y2.4116 Z0.1
  G81 X4.8166 Y2.4116 Z-0.025 R0.1 F15.0
  X3.4334 Y2.4116 
  X3.4334 Y1.0284 
  X4.8166 Y1.0284 
  G80
; --- Tool #2 ---
;Tool Diameter =    0.1875  Spindle Speed = 1200
;Drill
  G49 H0 M25 
  G0 X0.0 Y0.0
N0006 T2 M6
  F15.0 S1200 M3
  G4 P3.00 ; pause for dwell
  G43 D2
; --- Drill Array ---
N0007 X0.37 Y0.402 Z0.1 H2
  G10 P73 R0.05
  G73 X0.37 Y0.402 Z-0.35 R0.1 Q0.035 F10.0
  X1.88 Y0.402 
  X1.88 Y3.038 
  X0.37 Y3.038 
  G80
; --- Repeat ---
N0008 ; Begin code repetitions
; Retraction move 
  X3.37 Y0.402 Z0.2
; Move to start of contour 
  X3.37 Y0.402 Z0.1
; --- Drill Array ---
  X3.37 Y0.402 Z0.1
  G73 X3.37 Y0.402 Z-0.35 R0.1 Q0.035 F10.0
  X4.88 Y0.402 
  X4.88 Y3.038 
  X3.37 Y3.038 
  G80
; --- Tool #3 ---
;Tool Diameter =    0.5000  Spindle Speed = 3200
;1/2" end mill
  G49 H0 M25 
  G0 X0.0 Y0.0
N0009 T3 M6
  F10.0 S3200 M3
  G4 P3.00 ; pause for dwell
  G43 D3
; --- Circular Pocket ---
N0010 X1.125 Y1.4364 Z0.1 H3
  G1 G91 X0.0 Y0.0 Z-0.1
  X0.0 Y0.0 Z0.0 F12.5
  X0.0 Y0.5672 Z-0.1 F10.0
  X0.0 Y-0.2836 Z0.0 F12.5
  G3 X0.0 Y0.1408 Z0.0 J0.0704
  X0.1408 Y-0.1408 Z0.0 J-0.1408
  X-0.1408 Y0.2817 Z0.0 I-0.352
  X0.2817 Y-0.2817 Z0.0 J-0.2817 F25.0
  X-0.2817 Y0.4225 Z0.0 I-0.4577
  X0.0 Y0.0 Z0.0 J-0.4225
  G1 X0.0 Y-0.7061 Z0.0 F12.5
  X0.0 Y0.5672 Z-0.1 F10.0
  X0.0 Y-0.2836 Z0.0 F12.5
  G3 X0.0 Y0.1408 Z0.0 J0.0704
  X0.1408 Y-0.1408 Z0.0 J-0.1408
  X-0.1408 Y0.2817 Z0.0 I-0.352
  X0.2817 Y-0.2817 Z0.0 J-0.2817 F25.0
  X-0.2817 Y0.4225 Z0.0 I-0.4577
  X0.0 Y0.0 Z0.0 J-0.4225
  G1 X0.0 Y-0.7061 Z0.0 F12.5
  X0.0 Y0.5672 Z-0.1 F10.0
  X0.0 Y-0.2836 Z0.0 F12.5
  G3 X0.0 Y0.1408 Z0.0 J0.0704
  X0.1408 Y-0.1408 Z0.0 J-0.1408
  X-0.1408 Y0.2817 Z0.0 I-0.352
  X0.2817 Y-0.2817 Z0.0 J-0.2817 F25.0
  X-0.2817 Y0.4225 Z0.0 I-0.4577
  X0.0 Y0.0 Z0.0 J-0.4225
  X-0.4375 Y-0.4225 Z0.0 J-0.4378
  X0.0 Y0.0 Z0.0 I0.4375
  X0.4375 Y0.0 Z0.0 I0.2188
  G0 G90 X1.125 Y1.72 Z0.1
; --- Frame (Outside Rect) ---
N0011 X-0.25 Y2.8012 Z0.1
  G1 G91 X0.0 Y0.0 Z-0.1 F8.0
  X0.0 Y0.0 Z0.0 F25.0
  X0.0 Y0.6238 Z-0.11 F8.0
  G2 X0.265 Y0.265 Z0.0 I0.265 F25.0
  G1 X2.22 Y0.0 Z0.0
  G2 X0.265 Y-0.265 Z0.0 J-0.265
  G1 X0.0 Y-3.41 Z0.0
  G2 X-0.265 Y-0.265 Z0.0 I-0.265
  G1 X-2.22 Y0.0 Z0.0
  G2 X-0.265 Y0.265 Z0.0 J0.265
  G1 X0.0 Y3.41 Z0.0
  X0.0 Y-0.6238 Z0.0
  X0.0 Y0.6238 Z-0.11 F8.0
  G2 X0.265 Y0.265 Z0.0 I0.265 F25.0
  G1 X2.22 Y0.0 Z0.0
  G2 X0.265 Y-0.265 Z0.0 J-0.265
  G1 X0.0 Y-3.41 Z0.0
  G2 X-0.265 Y-0.265 Z0.0 I-0.265
  G1 X-2.22 Y0.0 Z0.0
  G2 X-0.265 Y0.265 Z0.0 J0.265
  G1 X0.0 Y3.41 Z0.0
  X0.0 Y-0.6238 Z0.0
  X0.0 Y0.6238 Z-0.06 F8.0
  G2 X0.265 Y0.265 Z0.0 I0.265 F25.0
  G1 X2.22 Y0.0 Z0.0
  G2 X0.265 Y-0.265 Z0.0 J-0.265
  G1 X0.0 Y-3.41 Z0.0
  G2 X-0.265 Y-0.265 Z0.0 I-0.265
  G1 X-2.22 Y0.0 Z0.0
  G2 X-0.265 Y0.265 Z0.0 J0.265
  G1 X0.0 Y3.41 Z0.0
  G0 G90 X-0.25 Y3.425 Z0.1
; --- Repeat ---
N0012 ; Begin code repetitions
; Retraction move 
  X4.125 Y1.4364 Z0.2
; Move to start of contour 
  X4.125 Y1.4364 Z0.1
; --- Circular Pocket ---
  X4.125 Y1.4364 Z0.1
  G1 G91 X0.0 Y0.0 Z-0.1 F10.0
  X0.0 Y0.0 Z0.0 F12.5
  X0.0 Y0.5672 Z-0.1 F10.0
  X0.0 Y-0.2836 Z0.0 F12.5
  G3 X0.0 Y0.1408 Z0.0 J0.0704
  X0.1408 Y-0.1408 Z0.0 J-0.1408
  X-0.1408 Y0.2817 Z0.0 I-0.352
  X0.2817 Y-0.2817 Z0.0 J-0.2817 F25.0
  X-0.2817 Y0.4225 Z0.0 I-0.4577
  X0.0 Y0.0 Z0.0 J-0.4225
  G1 X0.0 Y-0.7061 Z0.0 F12.5
  X0.0 Y0.5672 Z-0.1 F10.0
  X0.0 Y-0.2836 Z0.0 F12.5
  G3 X0.0 Y0.1408 Z0.0 J0.0704
  X0.1408 Y-0.1408 Z0.0 J-0.1408
  X-0.1408 Y0.2817 Z0.0 I-0.352
  X0.2817 Y-0.2817 Z0.0 J-0.2817 F25.0
  X-0.2817 Y0.4225 Z0.0 I-0.4577
  X0.0 Y0.0 Z0.0 J-0.4225
  G1 X0.0 Y-0.7061 Z0.0 F12.5
  X0.0 Y0.5672 Z-0.1 F10.0
  X0.0 Y-0.2836 Z0.0 F12.5
  G3 X0.0 Y0.1408 Z0.0 J0.0704
  X0.1408 Y-0.1408 Z0.0 J-0.1408
  X-0.1408 Y0.2817 Z0.0 I-0.352
  X0.2817 Y-0.2817 Z0.0 J-0.2817 F25.0
  X-0.2817 Y0.4225 Z0.0 I-0.4577
  X0.0 Y0.0 Z0.0 J-0.4225
  X-0.4375 Y-0.4225 Z0.0 J-0.4378
  X0.0 Y0.0 Z0.0 I0.4375
  X0.4375 Y0.0 Z0.0 I0.2188
  G0 G90 X4.125 Y1.72 Z0.1
; --- Frame ---
  X2.75 Y2.8012 Z0.1
  G1 G91 X0.0 Y0.0 Z-0.1 F8.0
  X0.0 Y0.0 Z0.0 F25.0
  X0.0 Y0.6238 Z-0.11 F8.0
  G2 X0.265 Y0.265 Z0.0 I0.265 F25.0
  G1 X2.22 Y0.0 Z0.0
  G2 X0.265 Y-0.265 Z0.0 J-0.265
  G1 X0.0 Y-3.41 Z0.0
  G2 X-0.265 Y-0.265 Z0.0 I-0.265
  G1 X-2.22 Y0.0 Z0.0
  G2 X-0.265 Y0.265 Z0.0 J0.265
  G1 X0.0 Y3.41 Z0.0
  X0.0 Y-0.6238 Z0.0
  X0.0 Y0.6238 Z-0.11 F8.0
  G2 X0.265 Y0.265 Z0.0 I0.265 F25.0
  G1 X2.22 Y0.0 Z0.0
  G2 X0.265 Y-0.265 Z0.0 J-0.265
  G1 X0.0 Y-3.41 Z0.0
  G2 X-0.265 Y-0.265 Z0.0 I-0.265
  G1 X-2.22 Y0.0 Z0.0
  G2 X-0.265 Y0.265 Z0.0 J0.265
  G1 X0.0 Y3.41 Z0.0
  X0.0 Y-0.6238 Z0.0
  X0.0 Y0.6238 Z-0.06 F8.0
  G2 X0.265 Y0.265 Z0.0 I0.265 F25.0
  G1 X2.22 Y0.0 Z0.0
  G2 X0.265 Y-0.265 Z0.0 J-0.265
  G1 X0.0 Y-3.41 Z0.0
  G2 X-0.265 Y-0.265 Z0.0 I-0.265
  G1 X-2.22 Y0.0 Z0.0
  G2 X-0.265 Y0.265 Z0.0 J0.265
  G1 X0.0 Y3.41 Z0.0
  G0 G90 X2.75 Y3.425 Z0.1
; --- End of Program ---
N0013 G49 H0 M25
  G40 ; Cutter Comp Off 
  M5 ; Spindle Off 
  M9 ; Coolant Off 
  G80 ; Cancel canned cycles 
  M30 ; End of program 
