; ICN_PATH = C:\intercon\thread.icn
; --- Header ---
N0001 ; CNC code generated by Intercon v2.31
; Description: Demo Thread
; Programmer: John Q. Public
; Date: Mon Mar 08 16:36:29 1999
  M25 G49 ; Goto Z home, cancel tool length offset 
  G17 G40 ; Setup for XY plane, no cutter comp 
  G20 ; inch measurements 
  G80 ; Cancel canned cycles 
  G90 ; absolute positioning 
  G98 ; canned cycle initial point return 
; --- Tool #1 ---
;Tool Diameter =    0.2500  Spindle Speed = 0
;                   
  G49 H0 M25 
  G0 X0.0 Y0.0
N0002 T1 M6
  S0
  G4 P3.00 ; pause for dwell
  G43 D1
; --- Thread ---
N0003 X0.0 Y0.0 Z0.5 H1
  X0.0 Y0.0 Z0.1
  G1 X0.0 Y0.0 Z0.0 F10.0
  G42 G17 ; Cutter Comp Right
  G2 X0.75 Y0.0 Z0.0 I0.375 F25.0
  X0.75 Y0.0 Z-0.0769 I-0.75
  X0.75 Y0.0 Z-0.1538 I-0.75
  X0.75 Y0.0 Z-0.2308 I-0.75
  X0.75 Y0.0 Z-0.3077 I-0.75
  X0.75 Y0.0 Z-0.3846 I-0.75
  X0.75 Y0.0 Z-0.4615 I-0.75
  X0.75 Y0.0 Z-0.5385 I-0.75
  X0.75 Y0.0 Z-0.6154 I-0.75
  X0.75 Y0.0 Z-0.6923 I-0.75
  X0.75 Y0.0 Z-0.7692 I-0.75
  X0.75 Y0.0 Z-0.8462 I-0.75
  X0.75 Y0.0 Z-0.9231 I-0.75
  X0.75 Y0.0 Z-1.0 I-0.75
  X0.75 Y0.0 Z-1.0769 I-0.75
  X0.75 Y0.0 Z-1.1538 I-0.75
  X0.75 Y0.0 Z-1.2308 I-0.75
  X0.75 Y0.0 Z-1.3077 I-0.75
  X0.75 Y0.0 Z-1.3846 I-0.75
  X0.75 Y0.0 Z-1.4615 I-0.75
  X-0.75 Y0.0 Z-1.5 I-0.75
  X0.0 Y0.0 Z-1.5 I0.375
  G40 G17 ; Cutter Comp Off
  G0 X0.0 Y0.0 Z-1.5
  X0.0 Y0.0 Z0.5
  G1 X0.0 Y0.0 Z0.5
; --- Repeat ---
N0004 ; Begin code repetitions
; Retraction move 
  G0 X2.0 Y0.0 Z0.5
; --- Thread Mill ---
  X2.0 Y0.0 Z0.5
  X2.0 Y0.0 Z0.1
  G1 X2.0 Y0.0 Z0.0 F10.0
  G42 G17 ; Cutter Comp Right
  G2 X2.75 Y0.0 Z0.0 I0.375 F25.0
  X2.75 Y0.0 Z-0.0769 I-0.75
  X2.75 Y0.0 Z-0.1538 I-0.75
  X2.75 Y0.0 Z-0.2308 I-0.75
  X2.75 Y0.0 Z-0.3077 I-0.75
  X2.75 Y0.0 Z-0.3846 I-0.75
  X2.75 Y0.0 Z-0.4615 I-0.75
  X2.75 Y0.0 Z-0.5385 I-0.75
  X2.75 Y0.0 Z-0.6154 I-0.75
  X2.75 Y0.0 Z-0.6923 I-0.75
  X2.75 Y0.0 Z-0.7692 I-0.75
  X2.75 Y0.0 Z-0.8462 I-0.75
  X2.75 Y0.0 Z-0.9231 I-0.75
  X2.75 Y0.0 Z-1.0 I-0.75
  X2.75 Y0.0 Z-1.0769 I-0.75
  X2.75 Y0.0 Z-1.1538 I-0.75
  X2.75 Y0.0 Z-1.2308 I-0.75
  X2.75 Y0.0 Z-1.3077 I-0.75
  X2.75 Y0.0 Z-1.3846 I-0.75
  X2.75 Y0.0 Z-1.4615 I-0.75
  X1.25 Y0.0 Z-1.5 I-0.75
  X2.0 Y0.0 Z-1.5 I0.375
  G40 G17 ; Cutter Comp Off
  G0 X2.0 Y0.0 Z-1.5
  X2.0 Y0.0 Z0.5
  G1 X2.0 Y0.0 Z0.5
; --- End Prog ---
N0005 G49 H0 M25 
  G0 X2.0 Y0.0
  G40 ; Cutter Comp Off 
  M5 ; Spindle Off 
  M9 ; Coolant Off 
  G80 ; Cancel canned cycles 
  M30 ; End of program 
